static/assets/img/icons/theme/cooking/knife-2.svg

<svg height="24" viewBox="0 0 24 24" width="24" xmlns="http://www.w3.org/2000/svg"><g fill="none" fill-rule="evenodd"><path d="m0 0h24v24h-24z" opacity="0"/><g fill="#000"><path d="m7.6109127 15.767767c.3905243.3905242.3905243 1.0236892 0 1.4142135l-3.5355339 3.5355339c-.39052429.3905243-1.02368927.3905243-1.41421356 0l-.70710679-.7071068c-.39052429-.3905243-.39052429-1.0236892 0-1.4142135l3.53553391-3.5355339c.39052429-.3905243 1.02368927-.3905243 1.41421356 0z" opacity=".3"/><path d="m18.5104076 2.03984489c2.7336701 2.73367004 2.7336701 7.1658249 0 9.89949491l-5.6568542 5.6568543-4.94974748-4.9497475z"/></g></g></svg>

<svg width="24px" height="24px" viewBox="0 0 24 24" version="1.1" xmlns="http://www.w3.org/2000/svg" xmlns:xlink="http://www.w3.org/1999/xlink">
    <title>Icon For Knife#2</title>
    <g stroke="none" stroke-width="1" fill="none" fill-rule="evenodd">
        <rect opacity="0" x="0" y="0" width="24" height="24"></rect>
        <path d="M7.6109127,15.767767 C8.001437,16.1582912 8.001437,16.7914562 7.6109127,17.1819805 L4.0753788,20.7175144 C3.68485451,21.1080387 3.05168953,21.1080387 2.66116524,20.7175144 L1.95405845,20.0104076 C1.56353416,19.6198833 1.56353416,18.9867184 1.95405845,18.5961941 L5.48959236,15.0606602 C5.88011665,14.6701359 6.51328163,14.6701359 6.90380592,15.0606602 L7.6109127,15.767767 Z" fill="#000000" opacity="0.3"></path>
        <path d="M18.5104076,2.03984489 C21.2440777,4.77351493 21.2440777,9.20566979 18.5104076,11.9393398 L12.8535534,17.5961941 L7.90380592,12.6464466 L18.5104076,2.03984489 Z" fill="#000000"></path>
    </g>
</svg>
